X: 31172
T: Paddy Fahey's
R: reel
M: 4/4
K: Gmajor
"G"G2 GF GBdB|"Am" cAag fgdc|"G"BGGF G2 (3dcB|"D" cBAG FADF|
"G" G2 GF GBdB|"Am"c2 ag fgdc|"G" BG (3GFG BGdB|"D"cAFA "G"G4:|
|:"G"g2 gf gdBG|"D"FGAB c2 cB|"Am" Aaag a2 (3agf|"D7" fdad bdad|
"G"g2 gf gdBG|"D"FGAB c2 cB|"Am"Aaag a2 ag|"D" fdcA "G"G4:|

